X: 33112
T: Prince William's March
R: polka
M: 2/4
K: Gmajor
|:D|G2 B/A/G|A3 c|B2 A2|G/F/G/A/ GA|
BG DB|A3 G|Fd d^c|1 d3:|2 d4||
d2 e>d|cB A>B|cB AG|FE/F/ D2|
GF/G/ AG/A/|BA/B/ cd/c/|B/A/G AF|GA Bc|
d2 e>d|cB A>B|cB AG|FE/F/ D2|
GF/G/ AG/A/|BA/B/ cd/c/|B/A/G AF|G3||

